public/x_logo.svg

<svg width="65" height="68" viewBox="0 0 65 68" fill="none" xmlns="http://www.w3.org/2000/svg">
<path d="M15.1744 23.4869L0 23.3614L0.418605 23.4869C8.12093 27.9033 17.093 39.2955 20.6163 44.4396L61.8488 3.03614L64.6744 0.0250126C64.507 -0.0753591 64.1162 0.150477 63.9419 0.275942L35.0581 24.3652C28.4651 29.6348 25.1163 31.2658 22.814 31.2658C20.9721 31.2658 18 26.9162 16.7442 24.7416C16.4093 23.8382 15.5581 23.5287 15.1744 23.4869Z" fill="#58126A"/>
<path d="M62.7904 5.6709L5.96484 67.0232H24.6974L22.8137 65.2667C21.809 64.6645 21.5579 63.5938 21.5579 63.1338C21.7253 58.8178 24.4184 56.5678 25.7439 55.9823C28.5904 55.1794 32.5812 61.9208 34.2207 65.3922C34.8904 67.0985 36.1044 67.4413 36.6276 67.3996L51.2788 67.0232C40.1439 60.8002 36.1044 54.9786 35.4765 52.8457C31.9602 47.9275 40.988 34.6533 45.9416 28.631L62.7904 5.6709Z" fill="#58126A"/>
</svg>

<svg xmlns="http://www.w3.org/2000/svg" width="65" height="68" fill="none" viewBox="0 0 65 68"><path fill="#58126A" d="M15.174 23.487 0 23.36l.419.126C8.12 27.903 17.093 39.295 20.616 44.44L61.85 3.036 64.674.025c-.167-.1-.558.125-.732.25l-28.884 24.09c-6.593 5.27-9.942 6.9-12.244 6.9-1.842 0-4.814-4.349-6.07-6.523-.335-.904-1.186-1.213-1.57-1.255ZM62.79 5.67 5.965 67.024h18.732l-1.883-1.756c-1.005-.602-1.256-1.673-1.256-2.133.167-4.316 2.86-6.566 4.186-7.152 2.846-.803 6.837 5.939 8.477 9.41.67 1.707 1.883 2.05 2.407 2.008l14.65-.377C40.145 60.8 36.105 54.98 35.478 52.846c-3.517-4.918 5.511-18.193 10.465-24.215L62.79 5.671Z"/></svg>
